apps/scalable/9gag.svg

<svg xmlns="http://www.w3.org/2000/svg" style="isolation:isolate" width="256" height="256"><defs><filter id="a" width="270.648" height="254.338" x="-7.32" y="2.95" filterUnits="userSpaceOnUse"><feGaussianBlur xmlns="http://www.w3.org/2000/svg" in="SourceGraphic" stdDeviation="4.294"/><feOffset xmlns="http://www.w3.org/2000/svg" dy="4" result="pf_100_offsetBlur"/><feFlood xmlns="http://www.w3.org/2000/svg" flood-opacity=".4"/><feComposite xmlns="http://www.w3.org/2000/svg" in2="pf_100_offsetBlur" operator="in" result="pf_100_dropShadow"/><feBlend xmlns="http://www.w3.org/2000/svg" in="SourceGraphic" in2="pf_100_dropShadow"/></filter></defs><g filter="url(#a)"><linearGradient id="b" x1=".567" x2=".567" y1="1.071" y2="-.071" gradientTransform="matrix(244.648 0 0 228.338 5.676 11.947)" gradientUnits="userSpaceOnUse"><stop offset="0%" stop-color="#a0a0a0"/><stop offset="100%" stop-color="#dfdfdf"/></linearGradient><path fill="url(#b)" d="M165.685 11.947c74.055 0 84.639 10.557 84.639 84.544v59.251c0 73.986-10.584 84.543-84.639 84.543h-75.37c-74.055 0-84.639-10.557-84.639-84.543V96.491c0-73.987 10.584-84.544 84.639-84.544h75.37z"/></g><g opacity=".4"><linearGradient id="c" x1=".517" x2=".517" y2="1"><stop offset="0%" stop-color="#fff"/><stop offset="12.5%" stop-opacity=".098" stop-color="#fff"/><stop offset="92.5%" stop-opacity=".098"/><stop offset="100%" stop-opacity=".498"/></linearGradient><path fill="none" stroke="url(#c)" stroke-linecap="round" stroke-linejoin="round" stroke-width="4.077" d="M165.685 11.947c74.055 0 84.639 10.557 84.639 84.544v59.251c0 73.986-10.584 84.543-84.639 84.543h-75.37c-74.055 0-84.639-10.557-84.639-84.543V96.491c0-73.987 10.584-84.544 84.639-84.544h75.37z" vector-effect="non-scaling-stroke"/></g><path fill="#333" d="M64.08 91.512A39555.104 39555.104 0 0 1 128.108 55c21.34 12.155 42.708 24.273 64.019 36.474-.028 24.376-.037 48.751.01 73.126-21.302 12.221-42.698 24.254-64.038 36.4-21.396-12.248-42.905-24.301-64.236-36.652 8.51-4.808 17.01-9.625 25.538-14.405 12.896 7.376 25.83 14.704 38.698 22.126 12.839-7.478 25.848-14.666 38.641-22.219-.113-9.756-.009-19.502-.057-29.258a19547.294 19547.294 0 0 1-38.584 22.135c-21.359-12.052-42.651-24.226-64.01-36.297 0-4.976.01-9.952-.009-14.918zm37.916 7.319c8.66 5.041 17.414 9.952 26.103 14.955 8.745-4.975 17.48-9.961 26.244-14.927-8.764-4.939-17.49-9.952-26.244-14.909-8.707 4.948-17.377 9.97-26.103 14.881z"/></svg>

<svg xmlns="http://www.w3.org/2000/svg" style="isolation:isolate" width="256" height="256" viewBox="0 0 256 256">
 <defs>
  <filter id="YXdxPIOjny807KTJPLopkrM2NVkiqHf1" width="270.648" height="254.338" x="-7.32" y="2.95" filterUnits="userSpaceOnUse">
   <feGaussianBlur xmlns="http://www.w3.org/2000/svg" in="SourceGraphic" stdDeviation="4.294"/>
   <feOffset xmlns="http://www.w3.org/2000/svg" dx="0" dy="4" result="pf_100_offsetBlur"/>
   <feFlood xmlns="http://www.w3.org/2000/svg" flood-opacity=".4"/>
   <feComposite xmlns="http://www.w3.org/2000/svg" in2="pf_100_offsetBlur" operator="in" result="pf_100_dropShadow"/>
   <feBlend xmlns="http://www.w3.org/2000/svg" in="SourceGraphic" in2="pf_100_dropShadow" mode="normal"/>
  </filter>
 </defs>
 <g filter="url(#YXdxPIOjny807KTJPLopkrM2NVkiqHf1)">
  <linearGradient id="_lgradient_17" x1=".567" x2=".567" y1="1.071" y2="-.071" gradientTransform="matrix(244.648,0,0,228.338,5.676,11.947)" gradientUnits="userSpaceOnUse">
   <stop offset="0%" style="stop-color:rgb(160,160,160)"/>
   <stop offset="100%" style="stop-color:rgb(223,223,223)"/>
  </linearGradient>
  <path fill="url(#_lgradient_17)" d="M 165.685 11.947 C 239.74 11.947 250.324 22.504 250.324 96.491 L 250.324 155.742 C 250.324 229.728 239.74 240.285 165.685 240.285 L 90.315 240.285 C 16.26 240.285 5.676 229.728 5.676 155.742 L 5.676 96.491 C 5.676 22.504 16.26 11.947 90.315 11.947 L 165.685 11.947 Z"/>
 </g>
 <g opacity=".4">
  <linearGradient id="_lgradient_18" x1=".517" x2=".517" y1="0" y2="1">
   <stop offset="0%" style="stop-color:rgb(255,255,255)"/>
   <stop offset="12.5%" stop-opacity=".098" style="stop-color:rgb(255,255,255)"/>
   <stop offset="92.5%" stop-opacity=".098" style="stop-color:rgb(0,0,0)"/>
   <stop offset="100%" stop-opacity=".498" style="stop-color:rgb(0,0,0)"/>
  </linearGradient>
  <path fill="none" stroke="url(#_lgradient_18)" stroke-linecap="round" stroke-linejoin="round" stroke-width="4.077" d="M 165.685 11.947 C 239.74 11.947 250.324 22.504 250.324 96.491 L 250.324 155.742 C 250.324 229.728 239.74 240.285 165.685 240.285 L 90.315 240.285 C 16.26 240.285 5.676 229.728 5.676 155.742 L 5.676 96.491 C 5.676 22.504 16.26 11.947 90.315 11.947 L 165.685 11.947 Z" vector-effect="non-scaling-stroke"/>
 </g>
 <path fill="#333333" d="M 64.08 91.512 C 85.419 79.319 106.759 67.146 128.108 55 C 149.448 67.155 170.816 79.273 192.127 91.474 C 192.099 115.85 192.09 140.225 192.137 164.6 C 170.835 176.821 149.439 188.854 128.099 201 C 106.703 188.752 85.194 176.699 63.863 164.348 C 72.373 159.54 80.873 154.723 89.401 149.943 C 102.297 157.319 115.231 164.647 128.099 172.069 C 140.938 164.591 153.947 157.403 166.74 149.85 C 166.627 140.094 166.731 130.348 166.683 120.592 C 153.834 127.986 140.967 135.361 128.099 142.727 C 106.74 130.675 85.448 118.501 64.089 106.43 C 64.089 101.454 64.099 96.478 64.08 91.512 Z M 101.996 98.831 C 110.656 103.872 119.41 108.783 128.099 113.786 C 136.844 108.811 145.579 103.825 154.343 98.859 C 145.579 93.92 136.853 88.907 128.099 83.95 C 119.392 88.898 110.722 93.92 101.996 98.831 L 101.996 98.831 Z"/>
</svg>
